X:156
T:Kit O'Mahoney's
T:Kit O'Mahony's
R:hornpipe
H:Cf. first two parts of jig#392
D:Nathan Gourley and Joey Abarta: Copley Street
Z:id:hn-hornpipe-156
M:C|
L:1/8
K:G
B3G ABAG | (3EFG AB cAFA | BG (3Bcd cAGF | D2G2 G3A |
~B3G ABAG | (3EFG AB cdeg | ~f3d cAGF |1 D2G2 G3A :|2 D2G2 G2 (3DEF ||
|: GABc d2g2 | defd cAGF | GABc d2ef | ~g3f d2ef |
~g3e ~f3d | (3efg ed (3Bcd eg | ~f3d cAGF |1 D2G2 G2 (3DEF :|2 D2G2 G3A ||
P:variations
|: BdBG ABAG | FGAB cAFA | BABd cAGF | D2G2 G2GA |
BdBG ABAG | FGAB cAFe | fefd ecAF |1 D2G2 G2dc :|2 D2G2 G3D ||
|: GABc d2g2 | defd cAFA | GABc d2ef | gagf d2ef |
gage fgfd | efed ^cdeg | fefd ecAF |1 D2G2 G2D2 :|2 D2G2 G2dc ||

